static/fa/svgs/solid/face-laugh-wink.svg

<svg xmlns="http://www.w3.org/2000/svg" viewBox="0 0 512 512"><!--! Font Awesome Free 6.1.1 by @fontawesome - https://fontawesome.com License - https://fontawesome.com/license/free (Icons: CC BY 4.0, Fonts: SIL OFL 1.1, Code: MIT License) Copyright 2022 Fonticons, Inc.--><path d="M0 256C0 114.6 114.6 0 256 0s256 114.6 256 256-114.6 256-256 256S0 397.4 0 256zm256 176c76.1 0 140.2-50 159.2-117.9 3.9-13.7-7.4-26.1-21.6-26.1H118.4c-14.2 0-25.48 12.4-21.64 26.1C115.8 382 179.9 432 256 432zm-79.6-272c-17.7 0-32 14.3-32 32s14.3 32 32 32c17.6 0 32-14.3 32-32s-14.4-32-32-32zm124.4 57.6c17.6-23.5 52.8-23.5 70.4 0 5.3 7.1 15.3 8.5 22.4 3.2 7.1-5.3 8.5-15.3 3.2-22.4-30.4-40.5-91.2-40.5-121.6 0-5.3 7.1-3.9 17.1 3.2 22.4 7.1 5.3 17.1 3.9 22.4-3.2z"/></svg>

<svg xmlns="http://www.w3.org/2000/svg" viewBox="0 0 512 512"><!--! Font Awesome Free 6.1.1 by @fontawesome - https://fontawesome.com License - https://fontawesome.com/license/free (Icons: CC BY 4.0, Fonts: SIL OFL 1.1, Code: MIT License) Copyright 2022 Fonticons, Inc. --><path d="M0 256C0 114.6 114.6 0 256 0C397.4 0 512 114.6 512 256C512 397.4 397.4 512 256 512C114.6 512 0 397.4 0 256zM256 432C332.1 432 396.2 382 415.2 314.1C419.1 300.4 407.8 288 393.6 288H118.4C104.2 288 92.92 300.4 96.76 314.1C115.8 382 179.9 432 256 432V432zM176.4 160C158.7 160 144.4 174.3 144.4 192C144.4 209.7 158.7 224 176.4 224C194 224 208.4 209.7 208.4 192C208.4 174.3 194 160 176.4 160zM300.8 217.6C318.4 194.1 353.6 194.1 371.2 217.6C376.5 224.7 386.5 226.1 393.6 220.8C400.7 215.5 402.1 205.5 396.8 198.4C366.4 157.9 305.6 157.9 275.2 198.4C269.9 205.5 271.3 215.5 278.4 220.8C285.5 226.1 295.5 224.7 300.8 217.6z"/></svg>
